X: 405
T: Good night
C:anon.
O:Ireland
B:Francis O'Neill: "The Dance Music of Ireland" (1907) no. 405
R:Single jig
Z:Transcribed by Frank Nordberg - http://www.musicaviva.com
F:http://www.musicaviva.com/abc/tunes/ireland/oneill-1001/oneill-1001-040
5.abc
M:6/8
L:1/8
K:G
({F}G2)E ({F}G2)E|({F}G2)A BGE|({F}G2)E ({F}G2)E|FAd AFD|({F}G2)E ({F}G2)
E|({F}G2)A ({A}B2)c|ded BAG|FAd AFD:|
|:gdc B2A|({E}G2)A BGE|gdc BAG|FAd AFD|gdc B2A|({F}G2)A ({A}B2)c|ded BAG|
FAd AFD:|
W:
W:
W:  From Musica Viva - http://www.musicaviva.com
W:  the Internet center for free sheet music downloads.


